storage/app/icons/phosphoricons/duotone/money-duotone.svg

<svg xmlns="http://www.w3.org/2000/svg" fill="currentColor" viewBox="0 0 256 256"><path d="M160 128a32 32 0 1 1-32-32 32 32 0 0 1 32 32m40-64a48.85 48.85 0 0 0 40 40V64Zm0 128h40v-40a48.85 48.85 0 0 0-40 40M16 152v40h40a48.85 48.85 0 0 0-40-40m0-48a48.85 48.85 0 0 0 40-40H16Z" opacity=".2"/><path d="M128 88a40 40 0 1 0 40 40 40 40 0 0 0-40-40m0 64a24 24 0 1 1 24-24 24 24 0 0 1-24 24m112-96H16a8 8 0 0 0-8 8v128a8 8 0 0 0 8 8h224a8 8 0 0 0 8-8V64a8 8 0 0 0-8-8M24 72h21.37A40.8 40.8 0 0 1 24 93.37Zm0 112v-21.37A40.8 40.8 0 0 1 45.37 184Zm208 0h-21.37A40.8 40.8 0 0 1 232 162.63Zm0-38.35A56.78 56.78 0 0 0 193.65 184H62.35A56.78 56.78 0 0 0 24 145.65v-35.3A56.78 56.78 0 0 0 62.35 72h131.3A56.78 56.78 0 0 0 232 110.35Zm0-52.28A40.8 40.8 0 0 1 210.63 72H232Z"/></svg>

<svg xmlns="http://www.w3.org/2000/svg" viewBox="0 0 256 256" fill="currentColor"><path d="M160,128a32,32,0,1,1-32-32A32,32,0,0,1,160,128Zm40-64a48.85,48.85,0,0,0,40,40V64Zm0,128h40V152A48.85,48.85,0,0,0,200,192ZM16,152v40H56A48.85,48.85,0,0,0,16,152Zm0-48A48.85,48.85,0,0,0,56,64H16Z" opacity="0.2"/><path d="M128,88a40,40,0,1,0,40,40A40,40,0,0,0,128,88Zm0,64a24,24,0,1,1,24-24A24,24,0,0,1,128,152ZM240,56H16a8,8,0,0,0-8,8V192a8,8,0,0,0,8,8H240a8,8,0,0,0,8-8V64A8,8,0,0,0,240,56ZM24,72H45.37A40.81,40.81,0,0,1,24,93.37Zm0,112V162.63A40.81,40.81,0,0,1,45.37,184Zm208,0H210.63A40.81,40.81,0,0,1,232,162.63Zm0-38.35A56.78,56.78,0,0,0,193.65,184H62.35A56.78,56.78,0,0,0,24,145.65v-35.3A56.78,56.78,0,0,0,62.35,72h131.3A56.78,56.78,0,0,0,232,110.35Zm0-52.28A40.81,40.81,0,0,1,210.63,72H232Z"/></svg>
